svg/u1f41f.svg

<svg viewBox="0 0 128 128" xmlns="http://www.w3.org/2000/svg">
  <linearGradient id="SVGID_1_" gradientUnits="userSpaceOnUse" x1="55.2728" x2="55.2728" y1="43.1059" y2="106.9005">
    <stop offset="0.0793" stop-color="#1483BC"/>
    <stop offset="0.1888" stop-color="#1F8CC2"/>
    <stop offset="0.3813" stop-color="#3CA4D3"/>
    <stop offset="0.5847" stop-color="#62C2E8"/>
    <stop offset="0.9616" stop-color="#99D6EF"/>
  </linearGradient>
  <path d="M102.92,75.96l-4.08-6.12L82.1,49.39c0,0-15.07-6.58-25.28-6.23 c-7.04,0.24-20.67-2.22-35.63,10.1C9.98,62.49,7.63,73.16,7.63,73.16l11.09,6.16l-8.45,5.63c0,0,9.72,17.82,36.62,21.3 c31.89,4.13,43.57-12.49,50.68-21.78C98.31,83.5,102.92,75.96,102.92,75.96z" fill="url(#SVGID_1_)"/>
  <path d="M57.66,27.63c-0.84,0.47-6.55,5.19-9.22,8.56c-2.36,2.98-4.86,7.32-4.86,7.32s12.67-0.4,21.87,2.7 s19.58,9.88,27.59,19.33c6.15,7.25,7.77,10.14,7.84,11.47c0.07,1.34-5.07,7.81-10.65,13.4c-3.57,3.57-7.09,6.95-16.38,12.29 c-4.37,2.51-7.81,3.38-7.81,3.38s10.16,1.77,15.13,1.83c5.54,0.07,8.78-0.33,9.15-1.64c0.38-1.31-5.82-6.01-5.82-6.01 s6.62-5.35,11.31-10.86c1.86-2.19,6.71-8.38,6.71-8.38s5.18,5.39,8.14,7.88c3.1,2.6,10.42,8.17,11.57,7.7 c1.32-0.54-1.5-8.92-3.38-12.29c-1.88-3.38-6.76-7.98-6.76-7.98s6.17-4.74,8.42-10.09c2.25-5.35,3.97-12.34,2.56-13 c-1.41-0.66-10.68,8.87-12.55,10.75c-1.88,1.88-7.02,8.09-7.02,8.09s-4.36-4.58-5.39-5.8c-1.03-1.22-4.32-5.35-4.32-5.35 s-7.03-14.3-19.62-24.31C65.45,29.69,57.66,27.63,57.66,27.63z" fill="#1B65A6"/>
  <linearGradient id="SVGID_2_" gradientUnits="userSpaceOnUse" x1="78.7754" x2="78.7754" y1="47.5223" y2="47.5223">
    <stop offset="0.0793" stop-color="#1483BC"/>
    <stop offset="0.1888" stop-color="#1F8CC2"/>
    <stop offset="0.3813" stop-color="#3CA4D3"/>
    <stop offset="0.5847" stop-color="#62C2E8"/>
    <stop offset="0.9616" stop-color="#99D6EF"/>
  </linearGradient>
  <path d="M78.78,47.52" fill="none" stroke="url(#SVGID_2_)" stroke-miterlimit="10"/>
  <path d="M48.93,77.79c0,1.69-0.77,7.34,4.22,11.05c5.81,4.31,14.55,5.04,17.83,4.86 c5.04-0.28,7.23-1.6,7.23-1.6s-5.16-6.48-14.27-10.89S48.93,77.79,48.93,77.79z" fill="#1B65A6"/>
  <path d="M5.29,72.79c-0.86,1.66,0.28,2.42,3.1,3.73c2.82,1.31,7.13,2.91,7.13,2.91s-2.72,1.13-4.13,2.06 c-1.41,0.94-3.95,1.89-3.28,3.57c0.49,1.24,1.69,1.13,3.94-0.09s7.23-4.32,7.32-5.54s-3.21-3.24-5.77-4.6 C10.5,73.19,6.27,70.89,5.29,72.79z" fill="#1B65A6"/>
  <path d="M35.6,69.01c0,1.94-1.23,3.59-3.66,3.75c-2.82,0.19-3.94-1.86-3.94-3.8s1.83-3.47,3.61-3.64 C33.94,65.12,35.6,67.07,35.6,69.01z" fill="#262D33"/>
  <path d="M46.3,70.89c-0.95,0.13-1.31,1.31-1.22,3.19c0.09,1.88,0.56,3.38,0.28,4.41 c-0.28,1.03-4.22,6.48-4.97,7.51c-0.75,1.03-1.69,2.53-0.66,3.38s2.35-0.28,3.1-1.03c0.75-0.75,5.82-7.41,6.01-8.92 c0.19-1.5-0.47-5.16-0.56-5.91C48.18,72.77,47.71,70.7,46.3,70.89z" fill="#E0ECF3"/>
  <path d="M51.18,70.89c-0.09,1.6,1.78,1.69,3.94,1.69c1.97,0,13.38,0.52,19.57,0.84 c6.62,0.35,15.58,1.95,19.54,2.63c2.35,0.4,4.6,0.94,4.6-0.66c0-1.52-2.46-1.76-4.88-2.25c-2.04-0.42-8.56-2.18-19.19-2.84 c-7.97-0.49-18.7-0.82-19.92-0.73C53.62,69.67,51.27,69.37,51.18,70.89z" fill="#E0ECF3"/>
</svg>

<svg viewBox="0 0 128 128" xmlns="http://www.w3.org/2000/svg">
  <defs>
    <linearGradient id="SVGID_1_" gradientUnits="userSpaceOnUse" x1="55.2728" x2="55.2728" y1="43.1059" y2="106.9005">
      <stop offset="0.0793" stop-color="#1483BC"/>
      <stop offset="0.1888" stop-color="#1F8CC2"/>
      <stop offset="0.3813" stop-color="#3CA4D3"/>
      <stop offset="0.5847" stop-color="#62C2E8"/>
      <stop offset="0.9616" stop-color="#99D6EF"/>
    </linearGradient>
    <linearGradient id="SVGID_2_" gradientUnits="userSpaceOnUse" x1="78.7754" x2="78.7754" y1="47.5223" y2="47.5223">
      <stop offset="0.0793" stop-color="#1483BC"/>
      <stop offset="0.1888" stop-color="#1F8CC2"/>
      <stop offset="0.3813" stop-color="#3CA4D3"/>
      <stop offset="0.5847" stop-color="#62C2E8"/>
      <stop offset="0.9616" stop-color="#99D6EF"/>
    </linearGradient>
  </defs>
  <path d="M102.92,75.96 L98.84,69.84 L82.1,49.39 C82.1,49.39 67.03,42.81 56.82,43.16 C49.78,43.4 36.15,40.94 21.19,53.26 C9.98,62.49 7.63,73.16 7.63,73.16 L18.72,79.32 L10.27,84.95 C10.27,84.95 19.99,102.77 46.89,106.25 C78.78,110.38 90.46,93.76 97.57,84.47 C98.31,83.5 102.92,75.96 102.92,75.96 Z" fill="url(#SVGID_1_)"/>
  <path d="M57.66,27.63 C56.82,28.1 51.11,32.82 48.44,36.19 C46.08,39.17 43.58,43.51 43.58,43.51 C43.58,43.51 56.25,43.11 65.45,46.21 C74.65,49.31 85.03,56.09 93.04,65.54 C99.19,72.79 100.81,75.68 100.88,77.01 C100.95,78.35 95.81,84.82 90.23,90.41 C86.66,93.98 83.14,97.36 73.85,102.7 C69.48,105.21 66.04,106.08 66.04,106.08 C66.04,106.08 76.2,107.85 81.17,107.91 C86.71,107.98 89.95,107.58 90.32,106.27 C90.7,104.96 84.5,100.26 84.5,100.26 C84.5,100.26 91.12,94.91 95.81,89.4 C97.67,87.21 102.52,81.02 102.52,81.02 C102.52,81.02 107.7,86.41 110.66,88.9 C113.76,91.5 121.08,97.07 122.23,96.6 C123.55,96.06 120.73,87.68 118.85,84.31 C116.97,80.93 112.09,76.33 112.09,76.33 C112.09,76.33 118.26,71.59 120.51,66.24 C122.76,60.89 124.48,53.9 123.07,53.24 C121.66,52.58 112.39,62.11 110.52,63.99 C108.64,65.87 103.5,72.08 103.5,72.08 C103.5,72.08 99.14,67.5 98.11,66.28 C97.08,65.06 93.79,60.93 93.79,60.93 C93.79,60.93 86.76,46.63 74.17,36.62 C65.45,29.69 57.66,27.63 57.66,27.63 Z" fill="#1B65A6"/>
  <path d="M48.93,77.79 C48.93,79.48 48.16,85.13 53.15,88.84 C58.96,93.15 67.7,93.88 70.98,93.7 C76.02,93.42 78.21,92.1 78.21,92.1 C78.21,92.1 73.05,85.62 63.94,81.21 C54.83,76.8 48.93,77.79 48.93,77.79 Z" fill="#1B65A6"/>
  <path d="M5.29,72.79 C4.43,74.45 5.57,75.21 8.39,76.52 C11.21,77.83 15.52,79.43 15.52,79.43 C15.52,79.43 12.8,80.56 11.39,81.49 C9.98,82.43 7.44,83.38 8.11,85.06 C8.6,86.3 9.8,86.19 12.05,84.97 C14.3,83.75 19.28,80.65 19.37,79.43 C19.46,78.21 16.16,76.19 13.6,74.83 C10.5,73.19 6.27,70.89 5.29,72.79 Z" fill="#1B65A6"/>
  <path d="M35.6,69.01 C35.6,70.95 34.37,72.6 31.94,72.76 C29.12,72.95 28,70.9 28,68.96 C28,67.02 29.83,65.49 31.61,65.32 C33.94,65.12 35.6,67.07 35.6,69.01 Z" fill="#262D33"/>
  <path d="M46.3,70.89 C45.35,71.02 44.99,72.2 45.08,74.08 C45.17,75.96 45.64,77.46 45.36,78.49 C45.08,79.52 41.14,84.97 40.39,86 C39.64,87.03 38.7,88.53 39.73,89.38 C40.76,90.23 42.08,89.1 42.83,88.35 C43.58,87.6 48.65,80.94 48.84,79.43 C49.03,77.93 48.37,74.27 48.28,73.52 C48.18,72.77 47.71,70.7 46.3,70.89 Z" fill="#E0ECF3"/>
  <path d="M51.18,70.89 C51.09,72.49 52.96,72.58 55.12,72.58 C57.09,72.58 68.5,73.1 74.69,73.42 C81.31,73.77 90.27,75.37 94.23,76.05 C96.58,76.45 98.83,76.99 98.83,75.39 C98.83,73.87 96.37,73.63 93.95,73.14 C91.91,72.72 85.39,70.96 74.76,70.3 C66.79,69.81 56.06,69.48 54.84,69.57 C53.62,69.67 51.27,69.37 51.18,70.89 Z" fill="#E0ECF3"/>
</svg>
